icons/shaderlab.svg

<svg width="16" height="16" viewBox="0 0 16 16" fill="none" xmlns="http://www.w3.org/2000/svg">
<path d="M8.52456 4.32585L10.6704 5.51366C10.7476 5.55536 10.7504 5.67105 10.6704 5.71275L8.12063 7.12521C8.04351 7.16825 7.95233 7.16556 7.88078 7.12521L5.331 5.71275C5.25246 5.67239 5.25106 5.55402 5.331 5.51366L7.47547 4.32585V2L2 5.03208V11.0962L4.09959 9.93401V7.55837C4.09818 7.4736 4.20197 7.41308 4.27911 7.45881L6.8289 8.87126C6.90604 8.91432 6.94952 8.99102 6.94952 9.07038V11.8939C6.95092 11.9787 6.84713 12.0392 6.77 11.9935L4.62413 10.8057L2.52455 11.9679L8.00003 15L13.4755 11.9679L11.3759 10.8057L9.23005 11.9935C9.15428 12.0379 9.04769 11.98 9.0505 11.8939V9.07038C9.0505 8.9856 9.09961 8.91031 9.1711 8.87126L11.7209 7.45881C11.7966 7.41442 11.9032 7.47094 11.9004 7.55837V9.93401L14 11.0962V5.03208L8.52456 2V4.32585Z" fill="#909090" fill-opacity="0.9"/>
</svg>

<svg xmlns="http://www.w3.org/2000/svg" width="16" height="16" fill="none" viewBox="0 0 16 16"><path fill="#909090" fill-opacity=".9" d="m8.525 4.326 2.145 1.188a.113.113 0 0 1 0 .199L8.12 7.125a.25.25 0 0 1-.24 0L5.332 5.713a.114.114 0 0 1 0-.2l2.144-1.187V2L2 5.032v6.064l2.1-1.162V7.558c-.002-.084.102-.145.18-.1l2.549 1.413c.077.043.12.12.12.2v2.823c.002.085-.102.145-.179.1l-2.146-1.188-2.1 1.162L8 15l5.476-3.032-2.1-1.162-2.146 1.188c-.076.044-.182-.014-.18-.1V9.07c0-.084.05-.16.121-.199l2.55-1.412c.076-.045.182.012.18.1v2.375L14 11.096V5.032L8.525 2z"/></svg>
